X:96
T:Maid of Sutherland, The
T:Nighean donn a buain nan dearcag
R:Slow Air
S:Simon Fraser Collection
N:No.53
O:Scottish
M:C
L:1/8
Q:1/4=100
K:G Minor
B<G G2 FG/B/ c2|B<G G>b g>fd>c|B>AGB FG/B/ c2|B<G ~G>A B>c d<g:|
f>dg>d f>c d2|f>d b2 g>fd>B|c>d f<b g>fd>c|B<G ~B>A ~B>c d<g|
f>dg>d f>c d2|f>d b2 g>fd>B|c>d f<b g>f d b/4a/4g/4^f/4|g>B~B>A B>c d<g|
|

